symbols/web/location_away/materialsymbolsoutlined/location_away_wght700gradN25_24px.svg

<svg xmlns="http://www.w3.org/2000/svg" height="24" width="24"><path d="M1.375 21.625V8.675L10 2.175l5.825 4.4q-.925 0-1.763.325-.837.325-1.512.95L10 5.975l-5.6 4.2V18.6h3.3v3.025Zm8.325 0V19.4q0-.625.288-1.15.287-.525.837-.875 1.175-.65 2.487-1.025 1.313-.375 2.688-.375 1.375 0 2.688.362Q20 16.7 21.2 17.375q.525.325.825.862.3.538.3 1.138v2.25Zm3.3-2.45h6.025l.05-.1q-.75-.3-1.513-.475-.762-.175-1.562-.175t-1.537.175q-.738.175-1.488.475Zm3-4.025q-1.375 0-2.337-.962-.963-.963-.963-2.338 0-1.4.963-2.363.962-.962 2.337-.962 1.375 0 2.35.962.975.963.975 2.338t-.975 2.35q-.975.975-2.35.975Zm0-2.45q.375 0 .625-.25t.25-.6q0-.375-.25-.625t-.625-.25q-.375 0-.613.25-.237.25-.237.6 0 .375.237.625.238.25.613.25Z"/></svg>

<svg xmlns="http://www.w3.org/2000/svg" height="24" width="24"><path d="M1.375 21.625V8.675L10 2.175L15.825 6.575Q14.9 6.575 14.062 6.9Q13.225 7.225 12.55 7.85L10 5.975L4.4 10.175V18.6H7.7V21.625ZM9.7 21.625V19.4Q9.7 18.775 9.988 18.25Q10.275 17.725 10.825 17.375Q12 16.725 13.312 16.35Q14.625 15.975 16 15.975Q17.375 15.975 18.688 16.337Q20 16.7 21.2 17.375Q21.725 17.7 22.025 18.237Q22.325 18.775 22.325 19.375V21.625ZM13 19.175H19.025L19.075 19.075Q18.325 18.775 17.562 18.6Q16.8 18.425 16 18.425Q15.2 18.425 14.463 18.6Q13.725 18.775 12.975 19.075ZM16 15.15Q14.625 15.15 13.663 14.188Q12.7 13.225 12.7 11.85Q12.7 10.45 13.663 9.487Q14.625 8.525 16 8.525Q17.375 8.525 18.35 9.487Q19.325 10.45 19.325 11.825Q19.325 13.2 18.35 14.175Q17.375 15.15 16 15.15ZM16 12.7Q16.375 12.7 16.625 12.45Q16.875 12.2 16.875 11.85Q16.875 11.475 16.625 11.225Q16.375 10.975 16 10.975Q15.625 10.975 15.387 11.225Q15.15 11.475 15.15 11.825Q15.15 12.2 15.387 12.45Q15.625 12.7 16 12.7Z"/></svg>
